brandFactory_export/2.Regular/Alarma desactivada_2Regular.svg

<?xml version="1.0" encoding="UTF-8"?>
<svg width="24px" height="24px" viewBox="0 0 24 24" version="1.1" xmlns="http://www.w3.org/2000/svg" xmlns:xlink="http://www.w3.org/1999/xlink">
    <title>2.Regular/Alarma desactivada_2Regular</title>
    <g id="Symbols" stroke="none" stroke-width="1" fill="none" fill-rule="evenodd">
        <g id="2.Regular/Alarma-desactivada_2Regular" fill="#5CB615" fill-rule="nonzero">
            <path d="M3.41680672,18.7361345 C5.18151261,16.2285714 4.99327731,12.8739496 4.98319328,12.7462185 L4.98319328,8.18823529 C4.98319328,7.27058824 5.09747899,6.44369748 5.31596639,5.70420168 L17.1546218,18.7361345 L3.41680672,18.7361345 Z M13.5243697,21.610084 C13.1512605,22.0134454 12.5966387,22.2117647 11.8302521,22.2117647 C11.0605042,22.2117647 10.5058824,22.0168067 10.1327731,21.610084 C9.74285714,21.1865546 9.62184874,20.6016807 9.58823529,20.1815126 L14.0756303,20.1815126 C14.0386555,20.6084034 13.9176471,21.1865546 13.5243697,21.610084 Z M6.8487395,3.15966387 C8.82521008,1.35462185 11.7563025,1.52605042 11.7865546,1.52605042 C11.8201681,1.52941176 11.8537815,1.52941176 11.887395,1.52605042 C11.9176471,1.52605042 14.8487395,1.35462185 16.8252101,3.15966387 C18.0621849,4.29243697 18.6907563,5.98319328 18.6907563,8.18823529 L18.6941176,12.6991597 C18.6806723,12.8672269 18.492437,16.2285714 20.2605042,18.7361345 L19.1378151,18.7361345 L5.96134454,4.24201681 C6.21008403,3.83865546 6.50252101,3.47563025 6.8487395,3.15966387 Z M22.4789916,22.4168067 L20.4453782,20.1815126 L21.9243697,20.1815126 C22.2369748,20.1815126 22.5159664,19.989916 22.6201681,19.7008403 C22.7243697,19.4117647 22.6336134,19.0890756 22.3915966,18.897479 C19.9411765,16.9411765 20.1630252,12.8302521 20.1663866,12.7428571 L20.1663866,8.18823529 C20.1663866,5.55966387 19.3764706,3.5092437 17.8201681,2.09411765 C15.5008403,-0.0201680672 12.297479,0.0504201681 11.8369748,0.0806722689 C11.3731092,0.0537815126 8.1697479,-0.0201680672 5.85042017,2.09411765 C5.51428571,2.40336134 5.20840336,2.74957983 4.94621849,3.12268908 L2.35798319,0.275630252 C2.08235294,-0.0235294118 1.62184874,-0.0504201681 1.31596639,0.21512605 C1.01680672,0.470588235 0.983193277,0.917647059 1.23865546,1.21680672 C1.24537815,1.22352941 1.2487395,1.2302521 1.25546218,1.23361345 L4.19327731,4.46722689 C3.74285714,5.53613445 3.50756303,6.77647059 3.50756303,8.18823529 L3.50756303,12.789916 C3.51092437,12.8302521 3.73277311,16.9411765 1.28235294,18.897479 C1.04033613,19.0890756 0.949579832,19.4117647 1.05378151,19.7008403 C1.16134454,19.989916 1.44033613,20.1848739 1.74957983,20.1815126 L8.1092437,20.1815126 C8.14957983,20.8336134 8.33445378,21.805042 9.02689076,22.5680672 C9.68571429,23.2941176 10.6302521,23.6571429 11.8336134,23.6571429 C13.0336134,23.6571429 13.9747899,23.2907563 14.6369748,22.5680672 C15.3294118,21.8084034 15.5176471,20.8369748 15.5613445,20.1815126 L18.4689076,20.1815126 L21.3731092,23.3747899 C21.5142857,23.5294118 21.7159664,23.6201681 21.9243697,23.6168067 C22.0991597,23.6168067 22.2773109,23.5563025 22.4151261,23.4352941 C22.7142857,23.1798319 22.7478992,22.7327731 22.492437,22.4336134 C22.4890756,22.4268908 22.4823529,22.4235294 22.4789916,22.4168067 Z" id="Alarma-desactivada_2Regular"></path>
        </g>
    </g>
</svg>

<svg width="24" height="24" viewBox="0 0 24 24" xmlns="http://www.w3.org/2000/svg"><path d="M3.417 18.736c1.765-2.507 1.576-5.862 1.566-5.99V8.188c0-.917.114-1.744.333-2.484l11.839 13.032H3.417zm10.107 2.874c-.373.403-.927.602-1.694.602-.77 0-1.324-.195-1.697-.602-.39-.423-.511-1.008-.545-1.428h4.488c-.037.426-.158 1.005-.552 1.428zM6.85 3.16c1.976-1.805 4.907-1.634 4.938-1.634a.505.505 0 00.1 0c.03 0 2.962-.171 4.938 1.634 1.237 1.132 1.866 2.823 1.866 5.028l.003 4.511c-.013.168-.202 3.53 1.567 6.037h-1.123L5.96 4.242c.25-.403.542-.766.888-1.082zm15.63 19.257l-2.034-2.235h1.48a.736.736 0 00.695-.481.714.714 0 00-.228-.804c-2.45-1.956-2.229-6.067-2.226-6.154V8.188c0-2.628-.79-4.679-2.346-6.094C15.5-.02 12.297.05 11.837.081 11.373.054 8.17-.02 5.85 2.094c-.336.31-.642.656-.904 1.029L2.358.276a.748.748 0 00-1.042-.06.71.71 0 00-.077 1c.006.008.01.014.016.018l2.938 3.233c-.45 1.07-.685 2.31-.685 3.721v4.602c.003.04.225 4.151-2.226 6.107a.714.714 0 00-.228.804c.107.289.386.484.696.48h6.36c.04.653.224 1.624.917 2.387.659.726 1.603 1.09 2.807 1.09 1.2 0 2.14-.367 2.803-1.09.692-.76.88-1.731.924-2.386h2.908l2.904 3.193a.736.736 0 00.551.242c.175 0 .353-.06.491-.182a.71.71 0 00.077-1.001c-.003-.007-.01-.01-.013-.017z" fill="#5CB615" fill-rule="nonzero"/></svg>
